X:1
T: Catherine Shaw
C:Bruce Shawyer
R:Reel
Q:232
K:C
M:4/4
L:1/16
|:"C"C4E2G2c4G4|"Am"A2B2c2B2A8|"F"F4A2c2f4f4|"Am"c2B2A2B2c8|
"Em"B2A2G2F2E4B,4|"D"A2G2^F2E2D4A,4|"Bm"^F2E2D2E2 F2E2D2F2|"G7"G2=F2E2D2 "C"C8:|
K:Em
|:"Em"E4G2B2e4B4|"Am"c2B2A2B2c8|E4A2c2e4c4|"Bm"f2e2d2^c2B8|
"Em"G4B2e2g4g4|"AM"e2d2c2B2A8|c2B2A2B2 c2B2A2c2|"Bm"B2A2G2F2 "Em"E8:|
